!!!OTL: 681. Doctor Eisenbart. / Andere Melodie.
!!!ODT: 1880 (um)
!!!ARE: Europa, Mitteleuropa, Deutschland, Nassau, Rheinland
!!!SCT: B0681A
!!!TXL: @@DE
!!!YEM: Copyright 1995, estate of Helmut Schaffrath.
**kern	**text
*ICvox	*
*Ivox	*
*clefG2	*
*M2/4	*
*k[]	*
*C:	*
!LO:TX:a:t=Luſtig.	!
{8g	Jch
=1	=1
8.ee	bin
16dd	der
8cc	Doc-
8a	-tor
=2	=2
8a	Ei-
8g	-ſen-
4g}	-bart,
=3	=3
{16g	wil-
16g	-le-
16g	-wil-
16g	-le
8a	witt,
8b	bom-
=4	=4
4cc	-bom!
8r}	.
{8g	ku-
=5	=5
8.ee	-rir'
16dd	die
8cc	Leut'
8a	nach
=6	=6
8a	mei-
8g	-ner
4g}	Art.
=7	=7
{16g	wil-
16g	-le-
16g	-wil-
16g	-le
8a	witt,
8b	bom-
=8	=8
4cc	-bom!
8r}	.
{8ee	Lau-
=9	=9
8.gg	-to-
16gg	-ni-
8gg	-a,
8ff	Lau-
=10	=10
8.ee	-to
16ee	ni-
4ee}	-a,
=11	=11
{16dd	wil-
16dd	-le-
16dd	-wil-
16dd	-le
8ee	witt,
8dd	juch-
=12	=12
8cc	-hei-
8cc	-raf-
8cc	-ſa!
8g}	Lau-
=13	=13
{8.cc	-to-
16cc	-ni-
8cc	-a,
8ee	Lau-
=14	=14
8.gg	-to-
16gg	-ni-
4gg}	-a,
=15	=15
{16ff	wil-
16ff	-le-
16ff	-wil-
16ff	-le
8gg	witt,
8ff	bom-
=16	=16
4ee	-bom!
8r}	.
==	==
!!!AGN: Scherz - Lied
!!!GTL: Scherzlieder und Gemischtes
!!!ONB: ESAC (Essen Associative Code) Database: BOEHME
!!!AMT: simple duple
!!!AIN: vox
!!!EED: Helmut Schaffrath
!!!EEV: 1.0
!!Aus dem Nassauischen und den Rheinlanden. Um 1880.
!!!URL-scan: https://archive.org/details/BoehmeVtLieder1895/page/n531/mode/2up
!!!ENC: Anna Maria Matuszewska
!!!EEV: 2024/17/07
*-	*-
